X:1
T:A Day Of Joy And Feasting
T:A Day Of Joy And Feasting
C:Traditional English
Z:All Rights Reserved
L:1/4
M:4/4
K:C
V:1 treble nm="Piano" snm="Pno."
%%MIDI program 0
V:1
 z2 z E |"Am" A c"Dm6" B"E" ^G |"Am" A2 E"F" F |"C" E3/2 D/"F" C"Dm" D |"E" E3"C" E | %5
w: A|day of joy and|feast- ing, Of|hap- pi- ness and|mirth; And|
w: All|hail the shin- ning|hol- ly, All|hail the mis- tle-|toe! With|
w: Long|may the Christ- mas|spir- it Of|kind- ness and good|will, Thru|
"G" G3/2 D/"C" E"Am" c |"B" B3/2 ^F/"Em" G (B/c/) |"G" d"Em" G"Am" A"D7" B |"G" G3 G |"C" c2 c G | %10
w: ev- 'ry year it|com- eth here To _|glad- den all the|earth. Sing|No- well! Sing|
w: car- ol gay, all|hail the day That _|com- eth o're the|snow! Sing||
w: joy and pain with|us re- main Our _|hearts witht warmth to|fill! Sing||
 (e/f/e/d/) c (c/B/) |"F" A"A7" A"Dm" A d |"C" (c2"G" B) G |"C" c3/2"G" d/"C" e"Em" E | %14
w: No- * * * well! And _|mer- ry be al-|ways; _ Join|in the song, the|
w: ||||
w: ||||
"F" A3/2"E7" B/"Am" c"Dm" d |"C" G3/2 c/ c"G7" B |"C" c3 z |] %17
w: sound pro- long All|on a Christ- mas|day.|
w: |||
w: |||

